X:1
T:5 Lieder, Op.47
T:O liebliche Wangen
T:5 Lieder, Op.47
T:4. O liebliche Wangen
T:Johannes Brahms
T:Paul Flemming 
T:OpenScore (CC0)
T:OpenScore (CC0)
T:OpenScore (CC0)
C:Johannes Brahms
Z:Paul Flemming
Z:OpenScore (CC0)
%%score ( 1 2 ) { ( 3 6 ) | ( 4 5 7 ) }
L:1/8
Q:1/4=128
M:6/8
K:D
V:1 treble nm="Singstimme\nVoice"
V:2 treble 
V:3 treble nm="Pianoforte"
V:6 treble 
V:4 bass 
V:5 bass 
V:7 bass 
V:1
"^Lebhaft"!mf! A | d3 A2 A | F3 A2 A | d3 e2 e | f3 d2 A | G3 F2 F | B3 A2 A | c3 d2 d | e3 A2 A | %9
w: 1. O|lieb- li- che|Wan- gen, ihr|macht mir Ver-|lan- gen, dies|ro- te, dies|wei- sse, zu|schau- en mit|Flei- sse. Und|
w: 2. O|Son- ne der|Won- ne! O|Won- ne der|Son- ne! O|Au- gen, so|sau- gen das|Licht mei- ner|Au- gen. O|
 d3 c2 c | B3 F2 F | e3 d2 d | c3 F2 F | A G z z2 A | c B z z2 c | e d d f e e | %16
w: dies nur al-|lei- ne ists|nicht, was ich|mei- ne; zu|* * zu|grü- ssen zu|rüh- ren, zu küs- sen, ihr|
w: eng- li- sche|Sin- nen! O|himm- lisch Be-|gin- nen! O||* * magst|du mir nicht wer- den, o|
 g f e[Q:1/4=122]"^rit. poco a poco"[Q:1/4=130]"_rit. poco a poco" d c B | %17
w: macht mir Ver- lan- gen, o|
w: Him- mel auf Er- den, magst|
[Q:1/4=119]"^T" (B2 A)[Q:1/4=116]"^T" A2 B |[Q:1/4=113]"^T" B3 !breath!!fermata!A2 A | %19
w: lieb- * li- che|Wan- gen, ihr|
w: du _ mir nicht|wer- den, o|
[Q:1/4=128]"^in tempo" A B c c d e | (=f2 d)[Q:1/4=120]"^rit."[Q:1/4=130]"_rit." f2 d | %21
w: macht mir Ver- lan- gen, o|lieb- * li- che|
w: Won- ne der Son- ne, o|Son- * ne der|
[Q:1/4=116]"^T" ^f6[Q:1/4=112]"^T" | A3- !breath!A2 :|!mf![Q:1/4=120]"^T" A | d3 A2 A | F3 A2 A | %26
w: Wan-|gen! _|3. O|Schön- ste der|Schö- nen! be-|
w: Won-|ne! _|_|||
 d3 e2 e | f3 d2 A | G3 F2 F | B3 A2 A | c3 d2 d | e3 A2 A | d3 c2 c | B3 F2 F | e3 d2 d | %35
w: nimm mir dies|Seh- nen. Komm,|ei- le, komm,|kom- me, du|sü- sse, du|from- me; ach|Schwe- ster, ich|ster- be, ich|sterb, ich ver-|
w: |||||||||
 c3 F2 F | A G z z2 A | c B z z2 c | e d d f e e | %39
w: der- be, komm,|kom- me, komm|ei- le, komm|kom- me, komm ei- le, be-|
w: ||||
 g f e[Q:1/4=116]"^T""^rit. poco a poco" d c B[Q:1/4=116]"^T" | %40
w: nimm mir dies Seh- nen, o|
w: |
[Q:1/4=114]"^T" (B2 A)[Q:1/4=112]"^T" A2 B[Q:1/4=113]"^T"[Q:1/4=111]"^T" | %41
w: Schön- * ste der|
w: |
 B3 !breath!!fermata!A2[Q:1/4=128]"^in tempo" A | A B c c d e | (=f2 d) f2 d | ^f3 e2 e | %45
w: Schö- nen, be-|nimm mir dies Seh- nen, o|Schön- * ste der|Schö- nen, der|
w: ||||
 (a3- a2 c) | d2 z z2 z | z2 z z2 |] %48
w: Schö- * *|nen!||
w: |||
V:2
 x | x6 | x6 | x6 | x6 | x6 | x6 | x6 | x6 | x6 | x6 | x6 | x6 | A G G B A z | z2 x4 | x6 | x6 | %17
w: |||||||||||||schau- en * * *||||
w: |||||||||||||Him- mel auf Er- den!||||
 x6 | x6 | x6 | x6 | x6 | x5 :| x | x6 | x6 | x6 | x6 | x6 | x6 | x6 | x6 | x6 | x6 | x6 | x6 | %36
w: |||||||||||||||||||
w: |||||||||||||||||||
 x6 | x6 | x6 | x6 | x6 | x6 | x6 | x6 | x6 | x6 | x6 | x5 |] %48
w: ||||||||||||
w: ||||||||||||
V:3
 z |!mf! z [FAd]D z [EA]A, | z [DF]F, z [CEA]A, | z [FAd]D z [Ace]E | z [Adf]F z [FAd]D | %5
 z [DG]G, z [DF]F, | z [DB]B, z [DA]A, | z [GAc]C z [FAe]D | z [Ace]E z [CEA]A, | %9
 z [FBd]D z [E^Ac]C | z [DFB]B, z [DF]B, | z [Fce]E z [FBd]D | z [F^Ac]C z FF, | %13
 [F,A,][E,G,]"_cresc."[E,G,] [G,B,][F,A,]!<(![F,A,] | [A,C][G,B,][G,B,] [B,D][A,C][A,C] | %15
 [Ece][DBd][DBd] [Fdf][Ece][Ece]!<)! |!f! [Bdg][Acf][GBe] [FAd][EGc][DGB] | %17
 [^DFB]2 ([DFA]/A,/) [EGA]2 ([EGB]/B,/) |!>(! B3!>)!!p! !fermata!A2 z | %19
!<(! .A.[AB].[Ac] .[Ac].[Ad].[Ace]!<)! |!f! ([Ad=f]2 [=FAd]) ([Adf]2 [FAd]) |!>(! [Ad^f]6!>)! | %22
!p! [DFA]3- !breath![DFA]2 :| z |!mf! z [FAd]D z [EA]A, | z [DF]F, z [CEA]A, | z [FAd]D z [Ace]E | %27
 z [Adf]F z [FAd]D | z [DG]G, z [DF]F, | z [DB]B, z [DA]A, | z [GAc]C z [FAd]D | %31
 z [Ace]E z [CEA]A, | z [FBd]D z [E^Ac]C | z [DFB]B, z [DF]B, | z [Fce]E z [FBd]D | %35
 z [F^Ac]C z FF, | [F,A,][E,G,]"_cresc."[E,G,] [G,B,][F,A,][F,A,] | %37
 [A,C][G,B,]!<(![G,B,] [B,D][A,C][A,C] | [Ece][DBd][DBd] [Fdf][Ece][Ece]!<)! | %39
!f! [Bdg][Acf][GBe] [FAd][EGc][DGB] | [^DFB]2 ([DFA]/A,/) [EGA]2 ([EGB]/B,/) | %41
!>(! B3!>)!!p! !fermata!A2 z |!<(! .A.[AB].[Ac] .[Ac].[Ad].[Ace]!<)! | %43
!f! ([Ad=f]2 [=FAd]) ([Adf]2 [FAd]) | [Ad^f]3 [GBe]3 | [Adfa]3 [EGAc]3 | %46
 [DFAd] A,/D/F/A/ [dfa] D/F/A/d/ | [dfad']2 z z2 |] %48
V:4
 z | (D,3 C,3 | B,,3 A,,3) | (F,,3 A,,3 | D,3 F,3) | ([B,,D,B,]3 [A,,D,A,]3 | %6
 [G,,D,G,]3 [F,,D,F,]3) | ([E,,A,,E,]3 [D,,A,,D,]3) | (A,,,3 A,,3) | F,6 | F,6 | F,6 | F,6 | %13
 A,,,/A,,/ z z z2 z | A,,,/A,,/ z z z2 z | A,,/A,/ z z A,,/A,/ z z | %16
 A,,,/A,,/A,,,/A,,/A,,,/A,,/ A,,,/A,,/A,,,/A,,/B,,,/B,,/ | %17
 (^B,,,/^B,,/^D,/F,/) z (C,,/C,/E,/G,/) z | (^D,,/^D,/F,/A,/) z !fermata![E,,A,,E,]2 z | %19
 A,,/A,/^G,,/^G,/=G,,/=G,/ G,,/G,/F,,/F,/E,,/E,/ | [D,,A,,]/D,/=F,/A,/ z ([D,,A,,]/D,/F,/A,/) z | %21
 .D,,,D,,!ped!A,,-D,-^F,-A, | [A,,D,F,A,]3- !breath![A,,D,F,A,]2!ped-up! :| z | (D,3 C,3 | %25
 B,,3 A,,3) | (F,,3 A,,3 | D,3 F,3) | ([B,,D,B,]3 [A,,D,A,]3 | [G,,D,G,]3 [F,,D,F,]3) | %30
 ([E,,A,,E,]3 [D,,A,,D,]3) | (A,,,3 A,,3) | F,6 | F,6 | F,6 | F,6 | A,,,/A,,/ z z z2 z | %37
 (A,,,/A,,/) z z z2 z | (A,,/A,/) z z (A,,/A,/) z z | %39
 A,,,/A,,/A,,,/A,,/A,,,/A,,/"^rit. poco a poco" A,,,/A,,/A,,,/A,,/B,,,/B,,/ | %40
 (^B,,,/^B,,/^D,/F,/) z (C,,/C,/E,/G,/) z | ^D,,/^D,/F,/A,/ z !fermata![E,,A,,E,]2 z | %42
 A,,/A,/^G,,/^G,/=G,,/=G,/ G,,/G,/F,,/F,/E,,/E,/ | ([D,,A,,]/D,/=F,/A,/) z ([D,,A,,]/D,/F,/A,/) z | %44
 ([D,,A,,]/D,/^F,/A,/) z ([G,,E,]/G,/B,/E/) z | ([A,,F,]/A,/D/F/) z (A,,,/A,,/C,/E,/) z | %46
 (D,,/A,,/D,/) z/ z ([D,,A,,]/D,/F,/) z/ z | [D,,,D,,]2 z z2 |] %48
V:5
 x | D,,6 | D,,6 | D,,6 | D,,3 D,3 | x6 | x6 | x6 | x6 | (B,,3 C,3 | D,3 B,,3) | (^A,,3 B,,3 | %12
 F,3 F,,3) | x6 | x6 | x6 | x6 | x6 | x6 | x6 | x6 | x2 A,,2 F,2 | x5 :| x | D,,6 | D,,6 | D,,6 | %27
 D,,3 D,3 | x6 | x6 | x6 | x6 | (B,,3 C,3 | D,3 B,,3) | (^A,,3 B,,3 | F,3 F,,3) | x6 | x6 | x6 | %39
 x6 | x6 | x6 | x6 | x6 | x6 | x6 | x6 | x5 |] %48
V:6
 x | x6 | x6 | x6 | x6 | x6 | x6 | x6 | x6 | x6 | x6 | x6 | x6 | x6 | x6 | x6 | x6 | x6 | %18
 [=CF]2 C/F/ [^CG]2 x | x6 | x6 | x6 | x5 :| x | x6 | x6 | x6 | x6 | x6 | x6 | x6 | x6 | x6 | x6 | %34
 x6 | x6 | x6 | x6 | x6 | x6 | x6 | [=CF]2 C/F/ [^CG]2 x | x6 | x6 | x6 | x6 | x6 | x5 |] %48
V:7
 x | x6 | x6 | x6 | x6 | x6 | x6 | x6 | x6 | x6 | x6 | x6 | x6 | x6 | x6 | x6 | x6 | x6 | x6 | x6 | %20
 x6 | x3 D,2 x | x5 :| x | x6 | x6 | x6 | x6 | x6 | x6 | x6 | x6 | x6 | x6 | x6 | x6 | x6 | x6 | %38
 x6 | x6 | x6 | x6 | x6 | x6 | x6 | x6 | x6 | x5 |] %48

